X:40
T:Lilting Banshee
C:Traditional
M:6/8
R:jig
K:Ador
EAA EA/A/A | BAB G2A | Be/e/e edB | dBA GED |
EAA EA/A/A | BAB G2A | Be/e/e edB | BAG A2G |
EAA EA/A/A | BAB G2A | Be/e/e edB | def gfg |
eAA eA/A/A | BAB G2A | Be/e/e edB | BAG A2d |
|: ea/a/a age | dBA G2A | Be/e/e edB | def gfg |
ea/a/a age | dBA G2A | Be/e/e edB | BAG A2d :|

